svg/part/shoe_fill.svg

<?xml version="1.0" encoding="UTF-8"?>
<svg width="24px" height="24px" viewBox="0 0 24 24" version="1.1" xmlns="http://www.w3.org/2000/svg" xmlns:xlink="http://www.w3.org/1999/xlink">
    <title>shoe_fill</title>
    <g id="Icon" stroke="none" stroke-width="1" fill="none" fill-rule="evenodd">
        <g id="Part" transform="translate(-528.000000, -144.000000)" fill-rule="nonzero">
            <g id="shoe_fill" transform="translate(528.000000, 144.000000)">
                <path d="M24,0 L24,24 L0,24 L0,0 L24,0 Z M12.5934901,23.257841 L12.5819402,23.2595131 L12.5108777,23.2950439 L12.4918791,23.2987469 L12.4918791,23.2987469 L12.4767152,23.2950439 L12.4056548,23.2595131 C12.3958229,23.2563662 12.3870493,23.2590235 12.3821421,23.2649074 L12.3780323,23.275831 L12.360941,23.7031097 L12.3658947,23.7234994 L12.3769048,23.7357139 L12.4804777,23.8096931 L12.4953491,23.8136134 L12.4953491,23.8136134 L12.5071152,23.8096931 L12.6106902,23.7357139 L12.6232938,23.7196733 L12.6232938,23.7196733 L12.6266527,23.7031097 L12.609561,23.275831 C12.6075724,23.2657013 12.6010112,23.2592993 12.5934901,23.257841 L12.5934901,23.257841 Z M12.8583906,23.1452862 L12.8445485,23.1473072 L12.6598443,23.2396597 L12.6498822,23.2499052 L12.6498822,23.2499052 L12.6471943,23.2611114 L12.6650943,23.6906389 L12.6699349,23.7034178 L12.6699349,23.7034178 L12.678386,23.7104931 L12.8793402,23.8032389 C12.8914285,23.8068999 12.9022333,23.8029875 12.9078286,23.7952264 L12.9118235,23.7811639 L12.8776777,23.1665331 C12.8752882,23.1545897 12.8674102,23.1470016 12.8583906,23.1452862 L12.8583906,23.1452862 Z M12.1430473,23.1473072 C12.1332178,23.1423925 12.1221763,23.1452606 12.1156365,23.1525954 L12.1099173,23.1665331 L12.0757714,23.7811639 C12.0751323,23.7926639 12.0828099,23.8018602 12.0926481,23.8045676 L12.108256,23.8032389 L12.3092106,23.7104931 L12.3186497,23.7024347 L12.3186497,23.7024347 L12.3225043,23.6906389 L12.340401,23.2611114 L12.337245,23.2485176 L12.337245,23.2485176 L12.3277531,23.2396597 L12.1430473,23.1473072 Z" id="MingCute"></path>
                <path d="M18.0263,3.90196 C17.8741,3.63831 17.61,3.45836 17.309,3.41309 C16.8982,3.41309 16.4564,3.73748 15.9821,4.08581 C15.865,4.17178 15.7459,4.25921 15.6248,4.34359 C15.0829,4.7212 14.4609,5.06335 13.9287,5.17227 C13.0988,5.34208 12.146,5.1033 11.3818,4.76134 C10.512,4.36051 10.009,5.28432 9.62014,5.9975 C9.54714,6.13139 9.47817,6.25788 9.41159,6.36678 C9.12222,6.84011 8.7568,7.40402 8.34154,7.9728 C7.94165,7.93613 7.5422,8.14413 7.35356,8.52565 C7.23165,8.7722 7.22078,9.04473 7.30173,9.28644 C6.99375,9.66381 6.70162,10.0255 6.42515,10.3728 C5.96991,10.243 5.4728,10.4522 5.25548,10.8917 C5.1007,11.2048 5.1249,11.5596 5.28876,11.8402 C4.21705,13.2727 3.47868,14.4383 3.05337,15.4746 C2.69212,16.3547 2.53893,17.178 2.6063,18.0169 C2.67275,18.8442 2.94828,19.6144 3.33347,20.3932 C3.85516,21.4479 5.13483,21.7371 6.07179,21.1962 L20.7942,12.6962 C21.7508,12.1439 22.0786,10.9207 21.5263,9.96414 L21.0263,9.09808 L14.9641,12.5981 C14.4858,12.8742 13.8742,12.7103 13.5981,12.2321 C13.3219,11.7538 13.4858,11.1422 13.9641,10.866 L20.0263,7.36603 L18.0263,3.90196 Z" id="路径" fill="#09244B"></path>
            </g>
        </g>
    </g>
</svg>

<svg xmlns="http://www.w3.org/2000/svg" width="24" height="24"><g fill="none" fill-rule="nonzero"><path d="M24 0v24H0V0h24ZM12.593 23.258l-.011.002-.071.035-.02.004-.014-.004-.071-.035c-.01-.004-.019-.001-.024.005l-.004.01-.017.428.005.02.01.013.104.074.015.004.012-.004.104-.074.012-.016.004-.017-.017-.427c-.002-.01-.009-.017-.017-.018Zm.265-.113-.013.002-.185.093-.01.01-.003.011.018.43.005.012.008.007.201.093c.012.004.023 0 .029-.008l.004-.014-.034-.614c-.003-.012-.01-.02-.02-.022Zm-.715.002a.023.023 0 0 0-.027.006l-.006.014-.034.614c0 .012.007.02.017.024l.015-.002.201-.093.01-.008.004-.011.017-.43-.003-.012-.01-.01-.184-.092Z"/><path fill="#09244B" d="M18.026 3.902a1 1 0 0 0-.717-.489c-.41 0-.853.324-1.327.673-.117.086-.236.173-.357.258-.542.377-1.164.72-1.696.828-.83.17-1.783-.069-2.547-.41-.87-.401-1.373.522-1.762 1.236-.073.133-.142.26-.208.369-.29.473-.655 1.037-1.07 1.606a1 1 0 0 0-1.04 1.313c-.308.378-.6.74-.877 1.087A1 1 0 0 0 5.29 11.84c-1.072 1.433-1.81 2.598-2.236 3.635-.36.88-.514 1.703-.447 2.542.067.827.342 1.597.727 2.376.522 1.055 1.802 1.344 2.739.803l14.722-8.5a2 2 0 0 0 .732-2.732l-.5-.866-6.062 3.5a1 1 0 0 1-1-1.732l6.062-3.5-2-3.464Z"/></g></svg>
